common/icons/svgs/image.svg

<svg xmlns="http://www.w3.org/2000/svg" width="24" height="24" viewBox="0 0 24 24">
  <g fill="none" fill-rule="evenodd" transform="translate(-312 -192)">
    <rect width="504" height="450" fill="#FFF"/>
    <g transform="translate(312 192)">
      <rect width="24" height="24"/>
      <g fill="#000" fill-rule="nonzero" transform="translate(1 4)">
        <path d="M18.5,0.8 L3.5,0.8 C1.84314575,0.8 0.5,2.14314575 0.5,3.8 L0.5,13.8 C0.5,15.4568542 1.84314575,16.8 3.5,16.8 L18.5,16.8 C20.1568542,16.8 21.5,15.4568542 21.5,13.8 L21.5,3.8 C21.5,2.14314575 20.1568542,0.8 18.5,0.8 L18.5,0.8 Z M3.5,2.8 L18.5,2.8 C19.0522847,2.8 19.5,3.24771525 19.5,3.8 L19.5,12 L18,10.5 C16.8123441,9.38990956 14.9676559,9.38990956 13.78,10.5 L13.25,11 L9.1,6.79 C7.91361517,5.65729723 6.04638483,5.65729723 4.86,6.79 L2.5,9.16 L2.5,3.8 C2.5,3.24771525 2.94771525,2.8 3.5,2.8 Z M18.5,14.8 L3.5,14.8 C2.94771525,14.8 2.5,14.3522847 2.5,13.8 L2.5,11.87 C2.623585,11.8194345 2.73579148,11.7446302 2.83,11.65 L6.29,8.19 C6.68003745,7.80227641 7.30996255,7.80227641 7.7,8.19 L12.19,12.74 C12.7754107,13.3064363 13.7045893,13.3064363 14.29,12.74 L15.2,11.88 C15.5900375,11.4922764 16.2199625,11.4922764 16.61,11.88 L19.2,14.47 C19.0204116,14.6694878 18.7681658,14.7884037 18.5,14.8 L18.5,14.8 Z"/>
        <circle cx="14.75" cy="6.25" r="1.75"/>
      </g>
    </g>
  </g>
</svg>

<svg viewBox='0 0 24 24'><g transform='translate(1 4)'><path d='M18.5.8h-15c-1.7 0-3 1.3-3 3v10c0 1.7 1.3 3 3 3h15c1.7 0 3-1.3 3-3v-10c0-1.7-1.3-3-3-3zm-15 2h15c.6 0 1 .4 1 1V12L18 10.5c-1.2-1.1-3-1.1-4.2 0l-.5.5-4.2-4.2C7.9 5.7 6 5.7 4.9 6.8L2.5 9.2V3.8c0-.6.4-1 1-1zm15 12h-15c-.6 0-1-.4-1-1v-1.9c.1-.1.2-.1.3-.2l3.5-3.5c.4-.4 1-.4 1.4 0l4.5 4.6c.6.6 1.5.6 2.1 0l.9-.9c.4-.4 1-.4 1.4 0l2.6 2.6c-.2.2-.4.3-.7.3z'/><circle cx='14.8' cy='6.2' r='1.8'/></g></svg>
